src/next/cmd/sc_quickedit.svg

<svg height="16" width="16" xmlns="http://www.w3.org/2000/svg"><g transform="matrix(.125 0 0 .125 .000571 -.002341)"><rect fill="#618fd2" fill-opacity=".091954" height="112" rx=".186953" ry=".225489" stroke-width="1.296517" width="111.86242" x="8.137581" y="8"/><g fill="#7193c6"><g transform="matrix(2 0 0 2 -119.99876 -8.005808)"><path d="m67.995424 11.99834v-4.00229h4.002287v4.00229z"/><path d="m75.974413 11.99668v-3.99834h4.023301v3.99834z"/><path d="m83.997713 12.00062v-4.00062h4.002904v4.00062z"/><path d="m120 12.002904h-4.00062v-4.002904h4.00062z"/><path d="m91.994807 11.99834v-4.00229h4.002287v4.00229z"/><path d="m99.973796 11.99668v-3.99834h4.023304v3.99834z"/><path d="m107.9971 12.00062v-4.00062h4.0029v4.00062z"/></g><g transform="matrix(0 2 -2 0 31.9921 -127.99542)"><path d="m67.995424 11.99834v-4.00229h4.002287v4.00229z"/><path d="m75.974413 11.99668v-3.99834h4.023301v3.99834z"/><path d="m83.997713 12.00062v-4.00062h4.002904v4.00062z"/><path d="m120 12.002904h-4.00062v-4.002904h4.00062z"/><path d="m91.994807 11.99834v-4.00229h4.002287v4.00229z"/><path d="m99.973796 11.99668v-3.99834h4.023304v3.99834z"/><path d="m107.9971 12.00062v-4.00062h4.0029v4.00062z"/></g><g transform="matrix(2 0 0 2 -127.99085 96.00332)"><path d="m67.995424 11.99834v-4.00229h4.002287v4.00229z"/><path d="m75.974413 11.99668v-3.99834h4.023301v3.99834z"/><path d="m83.997713 12.00062v-4.00062h4.002904v4.00062z"/><path d="m120 12.002904h-4.00062v-4.002904h4.00062z"/><path d="m91.994807 11.99834v-4.00229h4.002287v4.00229z"/><path d="m99.973796 11.99668v-3.99834h4.023304v3.99834z"/><path d="m107.9971 12.00062v-4.00062h4.0029v4.00062z"/></g><g transform="matrix(0 2 -2 0 135.99668 -119.94883)"><path d="m67.995424 11.99834v-4.00229h4.002287v4.00229z"/><path d="m75.974413 11.99668v-3.99834h4.023301v3.99834z"/><path d="m83.997713 12.00062v-4.00062h4.002904v4.00062z"/><path d="m120 12.002904h-4.00062v-4.002904h4.00062z"/><path d="m91.994807 11.99834v-4.00229h4.002287v4.00229z"/><path d="m99.973796 11.99668v-3.99834h4.023304v3.99834z"/><path d="m107.9971 12.00062v-4.00062h4.0029v4.00062z"/></g></g><g fill="#232323" stroke-width="1.653073" transform="matrix(1.0423008 0 0 1.0423008 20.371623 14.861934)"><path d="m44.125959 51.169789v1.256336h-16.861344v-1.256336q2.644917-.06612 3.636761-.528983.991843-.462861.991843-1.719196 0-1.58695-1.256335-4.430235l-2.71104-6.347801h-17.324204l-3.0416541 7.736382q-.5289833 1.388581-.5289833 2.578794 0 2.711039 4.4963584 2.711039v1.256336h-13.0923376v-1.256336q2.4465479-.132246 3.7690062-1.851442 1.3885813-1.785318 4.4302355-8.992716l13.7535669-32.4663526h1.322458l16.464607 37.5578166q1.58695 3.636761 2.644916 4.628605 1.057967.991843 3.306146 1.124089zm-32.400229-15.737254h15.274394l-7.670259-18.183802z"/><path d="m81.776813 40.523999q0 1.983688-.727352 3.901253-.727352 1.917564-2.446548 3.835129-1.653073 1.851441-4.959219 3.041654-3.306145 1.12409-7.868627 1.12409h-22.085054v-1.256336q4.099621-.132246 5.22371-1.190212 1.12409-1.057967 1.12409-4.76085v-29.358576q0-3.63676-1.12409-4.628604-1.057966-1.057967-5.22371-1.3224582v-1.2563354h18.514417q17.324204 0 17.324204 11.2408956 0 2.182057-.793475 3.901252-.793475 1.653073-1.653073 2.578794-.793475.859598-2.512671 1.653073-1.719196.793475-2.182056.925721-.46286.06612-1.917565.46286 1.520828.396738 2.24818.595107.793475.198368 2.777162 1.124089 2.049811.925721 3.1739 1.983688 1.12409 1.057966 2.115934 3.041654.991843 1.917565.991843 4.364112zm-20.828719 9.455578q2.975532 0 5.157588-.396738 2.182056-.396737 4.099621-1.322458 1.917564-.991844 2.909408-2.909409 1.057967-1.917564 1.057967-4.76085 0-2.711039-1.057967-4.562481-.991844-1.917564-2.446548-2.909408-1.454704-.991844-4.033498-1.520827-2.578794-.528984-4.562481-.595107-1.983688-.132245-5.289833-.132245v16.398483q0 1.58695.859598 2.182056.859597.528984 3.306145.528984zm-4.165743-21.75444h6.281677q4.628604 0 7.141275-2.049811 2.578794-2.115933 2.578794-6.017185 0-4.430235-2.975532-6.744538-2.975531-2.314302-8.662102-2.314302h-2.909408q-1.454704 0-1.454704 1.983688z"/></g></g></svg>

<?xml version="1.0" encoding="UTF-8" standalone="no"?>
<svg
   xmlns:dc="http://purl.org/dc/elements/1.1/"
   xmlns:cc="http://creativecommons.org/ns#"
   xmlns:rdf="http://www.w3.org/1999/02/22-rdf-syntax-ns#"
   xmlns:svg="http://www.w3.org/2000/svg"
   xmlns="http://www.w3.org/2000/svg"
   xmlns:sodipodi="http://sodipodi.sourceforge.net/DTD/sodipodi-0.dtd"
   xmlns:inkscape="http://www.inkscape.org/namespaces/inkscape"
   height="16"
   width="16"
   version="1.1"
   id="svg90"
   sodipodi:docname="sc_quickedit.svg"
   inkscape:version="0.92.4 (unknown)"
   inkscape:export-filename="/home/rizmut/Dokumen/Rizmut/Github/libreoffice-style-karasa-jaga/build/next/cmd/sc_quickedit.png"
   inkscape:export-xdpi="96"
   inkscape:export-ydpi="96">
  <metadata
     id="metadata96">
    <rdf:RDF>
      <cc:Work
         rdf:about="">
        <dc:format>image/svg+xml</dc:format>
        <dc:type
           rdf:resource="http://purl.org/dc/dcmitype/StillImage" />
        <dc:title></dc:title>
      </cc:Work>
    </rdf:RDF>
  </metadata>
  <defs
     id="defs94" />
  <sodipodi:namedview
     pagecolor="#ffffff"
     bordercolor="#666666"
     borderopacity="1"
     objecttolerance="10"
     gridtolerance="10"
     guidetolerance="10"
     inkscape:pageopacity="0"
     inkscape:pageshadow="2"
     inkscape:window-width="1366"
     inkscape:window-height="714"
     id="namedview92"
     showgrid="true"
     inkscape:zoom="29.5"
     inkscape:cx="9.8785113"
     inkscape:cy="7.5233704"
     inkscape:window-x="0"
     inkscape:window-y="28"
     inkscape:window-maximized="1"
     inkscape:current-layer="g1121"
     inkscape:snap-global="false">
    <inkscape:grid
       type="xygrid"
       id="grid903"
       spacingx="0.5"
       spacingy="0.5"
       empspacing="2" />
  </sodipodi:namedview>
  <g
     id="g1121"
     transform="matrix(0.125,0,0,0.125,5.705e-4,-0.00234138)">
    <rect
       style="fill:#618fd2;fill-opacity:0.09195401;stroke-width:1.29651701"
       id="rect2"
       y="8"
       x="8.1375809"
       width="111.86242"
       ry="0.22548883"
       rx="0.18695253"
       height="112" />
    <g
       transform="matrix(2,0,0,2,-119.99876,-8.005808)"
       id="g1017">
      <path
         style="fill:#7193c6"
         inkscape:connector-curvature="0"
         id="path44"
         d="M 67.995424,11.99834 V 7.99605 h 4.002287 v 4.00229 z" />
      <path
         style="fill:#7193c6"
         inkscape:connector-curvature="0"
         id="path46"
         d="M 75.974413,11.99668 V 7.99834 h 4.023301 v 3.99834 z" />
      <path
         style="fill:#7193c6"
         inkscape:connector-curvature="0"
         id="path48"
         d="M 83.997713,12.00062 V 8 h 4.002904 v 4.00062 z" />
      <path
         d="m 120,12.002904 h -4.00062 V 8 H 120 Z"
         id="path955"
         inkscape:connector-curvature="0"
         style="fill:#7193c6" />
      <path
         d="M 91.994807,11.99834 V 7.99605 h 4.002287 v 4.00229 z"
         id="path957"
         inkscape:connector-curvature="0"
         style="fill:#7193c6" />
      <path
         d="M 99.973796,11.99668 V 7.99834 h 4.023304 v 3.99834 z"
         id="path959"
         inkscape:connector-curvature="0"
         style="fill:#7193c6" />
      <path
         d="M 107.9971,12.00062 V 8 H 112 v 4.00062 z"
         id="path961"
         inkscape:connector-curvature="0"
         style="fill:#7193c6" />
    </g>
    <g
       id="g1033"
       transform="matrix(0,2,-2,0,31.9921,-127.99542)">
      <path
         d="M 67.995424,11.99834 V 7.99605 h 4.002287 v 4.00229 z"
         id="path1019"
         inkscape:connector-curvature="0"
         style="fill:#7193c6" />
      <path
         d="M 75.974413,11.99668 V 7.99834 h 4.023301 v 3.99834 z"
         id="path1021"
         inkscape:connector-curvature="0"
         style="fill:#7193c6" />
      <path
         d="M 83.997713,12.00062 V 8 h 4.002904 v 4.00062 z"
         id="path1023"
         inkscape:connector-curvature="0"
         style="fill:#7193c6" />
      <path
         style="fill:#7193c6"
         inkscape:connector-curvature="0"
         id="path1025"
         d="m 120,12.002904 h -4.00062 V 8 H 120 Z" />
      <path
         style="fill:#7193c6"
         inkscape:connector-curvature="0"
         id="path1027"
         d="M 91.994807,11.99834 V 7.99605 h 4.002287 v 4.00229 z" />
      <path
         style="fill:#7193c6"
         inkscape:connector-curvature="0"
         id="path1029"
         d="M 99.973796,11.99668 V 7.99834 h 4.023304 v 3.99834 z" />
      <path
         style="fill:#7193c6"
         inkscape:connector-curvature="0"
         id="path1031"
         d="M 107.9971,12.00062 V 8 H 112 v 4.00062 z" />
    </g>
    <g
       id="g1049"
       transform="matrix(2,0,0,2,-127.99085,96.00332)">
      <path
         d="M 67.995424,11.99834 V 7.99605 h 4.002287 v 4.00229 z"
         id="path1035"
         inkscape:connector-curvature="0"
         style="fill:#7193c6" />
      <path
         d="M 75.974413,11.99668 V 7.99834 h 4.023301 v 3.99834 z"
         id="path1037"
         inkscape:connector-curvature="0"
         style="fill:#7193c6" />
      <path
         d="M 83.997713,12.00062 V 8 h 4.002904 v 4.00062 z"
         id="path1039"
         inkscape:connector-curvature="0"
         style="fill:#7193c6" />
      <path
         style="fill:#7193c6"
         inkscape:connector-curvature="0"
         id="path1041"
         d="m 120,12.002904 h -4.00062 V 8 H 120 Z" />
      <path
         style="fill:#7193c6"
         inkscape:connector-curvature="0"
         id="path1043"
         d="M 91.994807,11.99834 V 7.99605 h 4.002287 v 4.00229 z" />
      <path
         style="fill:#7193c6"
         inkscape:connector-curvature="0"
         id="path1045"
         d="M 99.973796,11.99668 V 7.99834 h 4.023304 v 3.99834 z" />
      <path
         style="fill:#7193c6"
         inkscape:connector-curvature="0"
         id="path1047"
         d="M 107.9971,12.00062 V 8 H 112 v 4.00062 z" />
    </g>
    <g
       transform="matrix(0,2,-2,0,135.99668,-119.94883)"
       id="g1065">
      <path
         style="fill:#7193c6"
         inkscape:connector-curvature="0"
         id="path1051"
         d="M 67.995424,11.99834 V 7.99605 h 4.002287 v 4.00229 z" />
      <path
         style="fill:#7193c6"
         inkscape:connector-curvature="0"
         id="path1053"
         d="M 75.974413,11.99668 V 7.99834 h 4.023301 v 3.99834 z" />
      <path
         style="fill:#7193c6"
         inkscape:connector-curvature="0"
         id="path1055"
         d="M 83.997713,12.00062 V 8 h 4.002904 v 4.00062 z" />
      <path
         d="m 120,12.002904 h -4.00062 V 8 H 120 Z"
         id="path1057"
         inkscape:connector-curvature="0"
         style="fill:#7193c6" />
      <path
         d="M 91.994807,11.99834 V 7.99605 h 4.002287 v 4.00229 z"
         id="path1059"
         inkscape:connector-curvature="0"
         style="fill:#7193c6" />
      <path
         d="M 99.973796,11.99668 V 7.99834 h 4.023304 v 3.99834 z"
         id="path1061"
         inkscape:connector-curvature="0"
         style="fill:#7193c6" />
      <path
         d="M 107.9971,12.00062 V 8 H 112 v 4.00062 z"
         id="path1063"
         inkscape:connector-curvature="0"
         style="fill:#7193c6" />
    </g>
    <g
       transform="matrix(1.0423008,0,0,1.0423008,20.371623,14.861934)"
       style="fill:#232323;fill-opacity:1;stroke-width:1.65307295"
       id="g74">
      <path
         inkscape:connector-curvature="0"
         d="m 44.125959,51.169789 v 1.256336 H 27.264615 v -1.256336 q 2.644917,-0.06612 3.636761,-0.528983 0.991843,-0.462861 0.991843,-1.719196 0,-1.58695 -1.256335,-4.430235 l -2.71104,-6.347801 H 10.60164 l -3.0416541,7.736382 q -0.5289833,1.388581 -0.5289833,2.578794 0,2.711039 4.4963584,2.711039 v 1.256336 H -1.5649766 V 51.169789 Q 0.8815713,51.037543 2.2040296,49.318347 3.5926109,47.533029 6.6342651,40.325631 L 20.387832,7.8592784 H 21.71029 L 38.174897,45.417095 q 1.58695,3.636761 2.644916,4.628605 1.057967,0.991843 3.306146,1.124089 z M 11.72573,35.432535 H 27.000124 L 19.329865,17.248733 Z"
         id="path68"
         style="fill:#232323;fill-opacity:1" />
      <path
         inkscape:connector-curvature="0"
         d="m 81.776813,40.523999 q 0,1.983688 -0.727352,3.901253 -0.727352,1.917564 -2.446548,3.835129 -1.653073,1.851441 -4.959219,3.041654 -3.306145,1.12409 -7.868627,1.12409 H 43.690013 v -1.256336 q 4.099621,-0.132246 5.22371,-1.190212 1.12409,-1.057967 1.12409,-4.76085 V 15.860151 q 0,-3.63676 -1.12409,-4.628604 -1.057966,-1.057967 -5.22371,-1.3224582 V 8.6527534 H 62.20443 q 17.324204,0 17.324204,11.2408956 0,2.182057 -0.793475,3.901252 -0.793475,1.653073 -1.653073,2.578794 -0.793475,0.859598 -2.512671,1.653073 -1.719196,0.793475 -2.182056,0.925721 -0.46286,0.06612 -1.917565,0.46286 1.520828,0.396738 2.24818,0.595107 0.793475,0.198368 2.777162,1.124089 2.049811,0.925721 3.1739,1.983688 1.12409,1.057966 2.115934,3.041654 0.991843,1.917565 0.991843,4.364112 z m -20.828719,9.455578 q 2.975532,0 5.157588,-0.396738 2.182056,-0.396737 4.099621,-1.322458 1.917564,-0.991844 2.909408,-2.909409 1.057967,-1.917564 1.057967,-4.76085 0,-2.711039 -1.057967,-4.562481 -0.991844,-1.917564 -2.446548,-2.909408 -1.454704,-0.991844 -4.033498,-1.520827 -2.578794,-0.528984 -4.562481,-0.595107 -1.983688,-0.132245 -5.289833,-0.132245 v 16.398483 q 0,1.58695 0.859598,2.182056 0.859597,0.528984 3.306145,0.528984 z m -4.165743,-21.75444 h 6.281677 q 4.628604,0 7.141275,-2.049811 2.578794,-2.115933 2.578794,-6.017185 0,-4.430235 -2.975532,-6.744538 -2.975531,-2.314302 -8.662102,-2.314302 h -2.909408 q -1.454704,0 -1.454704,1.983688 z"
         id="path70"
         style="fill:#232323;fill-opacity:1" />
    </g>
  </g>
</svg>
